!!!OTL: JETZT WIRD DER BESCHLUSS GEMACHT
!!!ARE: Europa, Mitteleuropa, Deutschland, Thueringen, Thueringer Wald
!!!SCT: E0772
!!!YEM: Copyright 1995, estate of Helmut Schaffrath.
**kern
*ICvox
*Ivox
*M4/4
*k[b-]
*F:
{8c
=1
4f
4f
4a
4a
=2
4cc
8ff
8cc
4a
4r}
=3
{4.cc
8b-
4g
4b-
=4
8dd
8cc
8cc
8b-
4a
4r}
=5
{4a
4a
4.g
8g
=6
4b-
4b-
4a
4r}
=7
{4.cc
8ff
4dd
8cc
8b-
=8
4a
4g
4f
4r}
=9
{4a
4a
4.g
8g
=10
4b-
4b-
4a
4r}
=11
{4.cc
8ff
4dd
8cc
8b-
=12
4a
4g
4f
8r}
==
!!!AGN: Abschieds - Lied, Liebe
!!!ONB: ESAC (Essen Associative Code) Database: ERK2
!!!AMT: simple quadruple
!!!AIN: vox
!!!EED: Helmut Schaffrath
!!!EEV: 1.0
*-
